assets/icons/vscom/cloud.svg

<svg xmlns="http://www.w3.org/2000/svg" viewBox="-963 -219 1000 1000" enable-background="new -963 -219 1000 1000"><path d="M-431.75 31c120.812 0 218.75 97.938 218.75 218.75v31.25h62.5c69.062 0 125 55.938 125 125s-55.938 125-125 125h-562.5c-103.563 0-187.5-83.938-187.5-187.5s83.937-187.5 187.5-187.5c27.563 0 53.5 6.312 77.063 16.938 31.187-82.75 110.499-141.938 204.187-141.938m0-62.5c-95.938 0-184.75 50.188-235.813 129.25-15-2.813-30.125-4.25-45.438-4.25-137.875 0-250 112.125-250 250s112.125 250 250 250h562.5c103.376 0 187.501-84.125 187.501-187.5s-84.125-187.5-187.5-187.5h-1.75c-15.562-140.437-135-250-279.5-250z"/></svg>

<?xml version="1.0" encoding="utf-8"?>
<!-- Generator: Adobe Illustrator 19.1.0, SVG Export Plug-In . SVG Version: 6.00 Build 0)  -->
<svg version="1.1" id="Layer_1" xmlns="http://www.w3.org/2000/svg" xmlns:xlink="http://www.w3.org/1999/xlink" x="0px" y="0px"
	 viewBox="-963 -219 1000 1000" enable-background="new -963 -219 1000 1000" xml:space="preserve">
<g id="outline">
	<path d="M-431.75,31C-310.938,31-213,128.938-213,249.75V281h62.5c69.062,0,125,55.938,125,125s-55.938,125-125,125H-713
		c-103.563,0-187.5-83.938-187.5-187.5S-816.563,156-713,156c27.563,0,53.5,6.312,77.063,16.938
		C-604.75,90.188-525.438,31-431.75,31 M-431.75-31.5c-95.938,0-184.75,50.188-235.813,129.25c-15-2.813-30.125-4.25-45.438-4.25
		c-137.875,0-250,112.125-250,250s112.125,250,250,250h562.5C-47.125,593.5,37,509.375,37,406s-84.125-187.5-187.5-187.5h-1.75
		C-167.812,78.063-287.25-31.5-431.75-31.5z"/>
</g>
</svg>
